src/assets/icon/home.svg

<svg width="24" height="24" viewBox="0 0 24 24" fill="none" xmlns="http://www.w3.org/2000/svg">
<mask id="mask0_253_4431" style="mask-type:alpha" maskUnits="userSpaceOnUse" x="0" y="0" width="24" height="24">
<rect width="24" height="24" fill="#D9D9D9"/>
</mask>
<g mask="url(#mask0_253_4431)">
<path d="M6 18.9999H9.34625V13.9614C9.34625 13.7054 9.43283 13.4907 9.606 13.3174C9.77933 13.1442 9.994 13.0576 10.25 13.0576H13.75C14.006 13.0576 14.2207 13.1442 14.394 13.3174C14.5672 13.4907 14.6538 13.7054 14.6538 13.9614V18.9999H18V10.1536C18 10.1025 17.9888 10.056 17.9663 10.0144C17.9439 9.9727 17.9135 9.93578 17.875 9.90362L12.1828 5.62487C12.1314 5.58003 12.0705 5.55762 12 5.55762C11.9295 5.55762 11.8686 5.58003 11.8173 5.62487L6.125 9.90362C6.0865 9.93578 6.05608 9.9727 6.03375 10.0144C6.01125 10.056 6 10.1025 6 10.1536V18.9999ZM4.5 18.9999V10.1536C4.5 9.86745 4.564 9.59637 4.692 9.34037C4.82017 9.0842 4.99717 8.87328 5.223 8.70762L10.9155 4.41912C11.2313 4.17812 11.5923 4.05762 11.9985 4.05762C12.4047 4.05762 12.7667 4.17812 13.0845 4.41912L18.777 8.70762C19.0028 8.87328 19.1798 9.0842 19.308 9.34037C19.436 9.59637 19.5 9.86745 19.5 10.1536V18.9999C19.5 19.4089 19.3523 19.7611 19.0568 20.0566C18.7613 20.3521 18.409 20.4999 18 20.4999H14.0577C13.8016 20.4999 13.5869 20.4132 13.4137 20.2399C13.2404 20.0667 13.1538 19.852 13.1538 19.5959V14.5576H10.8463V19.5959C10.8463 19.852 10.7596 20.0667 10.5863 20.2399C10.4131 20.4132 10.1984 20.4999 9.94225 20.4999H6C5.591 20.4999 5.23875 20.3521 4.94325 20.0566C4.64775 19.7611 4.5 19.4089 4.5 18.9999Z" fill="#CCCCCC"/>
</g>
</svg>

<svg xmlns="http://www.w3.org/2000/svg" width="24" height="24" fill="none" xmlns:v="https://vecta.io/nano"><mask id="A" maskUnits="userSpaceOnUse" x="0" y="0" width="24" height="24" mask-type="alpha"><path fill="#d9d9d9" d="M0 0h24v24H0z"/></mask><g mask="url(#A)"><path d="M6 19h3.346v-5.039c0-.256.087-.471.26-.644s.388-.26.644-.26h3.5c.256 0 .471.087.644.26s.26.388.26.644V19H18v-8.846c0-.051-.011-.098-.034-.139s-.053-.079-.091-.111l-5.692-4.279A.27.27 0 0 0 12 5.558c-.07 0-.131.022-.183.067L6.125 9.904c-.038.032-.069.069-.091.111S6 10.103 6 10.154V19zm-1.5 0v-8.846c0-.286.064-.557.192-.813s.305-.467.531-.633l5.693-4.288c.316-.241.677-.362 1.083-.362a1.75 1.75 0 0 1 1.086.362l5.693 4.289c.226.166.403.377.531.633s.192.527.192.813V19a1.44 1.44 0 0 1-.443 1.057c-.296.296-.648.443-1.057.443h-3.942c-.256 0-.471-.087-.644-.26s-.26-.388-.26-.644v-5.038h-2.308v5.038c0 .256-.087.471-.26.644s-.388.26-.644.26H6a1.44 1.44 0 0 1-1.057-.443A1.44 1.44 0 0 1 4.5 19z" fill="#ccc"/></g></svg>
